static/nodeIcons/editor/webstorm.svg

<svg width="256" height="219" viewBox="0 0 256 219" xmlns="http://www.w3.org/2000/svg" preserveAspectRatio="xMidYMid"><path d="M152.402 212.46c2.646-3.325 5.776-6.954 9.481-11.228l1.845-2.129c2.308-2.664 4.226-4.722 6.068-6.718 3.664-3.952 6.834-7.362 12.624-15.244 5.681-7.739 9.351-13.563 8.752-23.548-.291-5.139-.496-8.666-3.848-12.806-2.014-2.482-5.753-6.091-9.718-9.909-4.29-4.139-8.023-8.077-13.08-13.347-5.061-5.249-11.604-18.675-11.604-18.675-1.948-4.444-5.588-13.672-6.602-22.252L131.453.36H89.087L68.361 96.514 50.008.36H0l45.115 218.448h42.123l21.058-94.559 18.624 94.559h19.555l5.927-6.348" fill="#2788B5"/><path d="M240.568 13.433c4.424-5.129 8.07-9.286 11.063-13.059h-67.19c-4 5.105-12.115 14.946-16.751 23.674-6.122 11.556-11.159 20.225-11.659 41.499l.226 6.852c0 10.142 7.252 25.033 7.252 25.033 1.134 2.64 4.972 8.228 7.427 11.628h-.062a180.858 180.858 0 0 0 1.343 1.767c7.241 8.297 18.198 17.569 23.037 23.523 5.656 6.979 5.807 13.532 6.112 18.627.818 13.772-4.753 22.072-10.711 30.204-9.012 12.289-12.258 14.566-19.195 22.599-4.424 5.122-8.067 9.272-11.063 13.028h69.423c4.071-5.225 9.868-14.874 14.521-23.657 6.122-11.556 11.166-20.226 11.659-41.479l-.226-6.858c0-10.159-7.252-25.054-7.252-25.054-1.133-2.64-4.975-8.194-7.434-11.628h.062c-.788-1.055-1.336-1.76-1.336-1.76-7.241-8.303-18.205-17.562-23.037-23.523-5.656-6.996-5.807-13.539-6.112-18.631-.818-13.758 4.753-22.071 10.718-30.203 9.008-12.258 12.251-14.559 19.185-22.582" fill="#FA930D"/></svg>

<?xml version="1.0" encoding="UTF-8" standalone="no"?>
<svg width="256px" height="219px" viewBox="0 0 256 219" version="1.1" xmlns="http://www.w3.org/2000/svg" xmlns:xlink="http://www.w3.org/1999/xlink" preserveAspectRatio="xMidYMid">
	<g>
		<path d="M152.402,212.46 C155.048,209.135 158.178,205.506 161.883,201.232 L163.728,199.103 C166.036,196.439 167.954,194.381 169.796,192.385 C173.46,188.433 176.63,185.023 182.42,177.141 C188.101,169.402 191.771,163.578 191.172,153.593 C190.881,148.454 190.676,144.927 187.324,140.787 C185.31,138.305 181.571,134.696 177.606,130.878 C173.316,126.739 169.583,122.801 164.526,117.531 C159.465,112.282 152.922,98.856 152.922,98.856 C150.974,94.412 147.334,85.184 146.32,76.604 L131.453,0.36 L89.087,0.36 L68.361,96.514 L50.008,0.36 L0,0.36 L45.115,218.808 L87.238,218.808 L108.296,124.249 L126.92,218.808 L146.475,218.808 L152.402,212.46" fill="#2788B5"></path>
		<path d="M240.568,13.433 C244.992,8.304 248.638,4.147 251.631,0.374 L184.441,0.374 C180.441,5.479 172.326,15.32 167.69,24.048 C161.568,35.604 156.531,44.273 156.031,65.547 L156.257,72.399 C156.257,82.541 163.509,97.432 163.509,97.432 C164.643,100.072 168.481,105.66 170.936,109.06 L170.874,109.06 C171.682,110.135 172.217,110.827 172.217,110.827 C179.458,119.124 190.415,128.396 195.254,134.35 C200.91,141.329 201.061,147.882 201.366,152.977 C202.184,166.749 196.613,175.049 190.655,183.181 C181.643,195.47 178.397,197.747 171.46,205.78 C167.036,210.902 163.393,215.052 160.397,218.808 L229.82,218.808 C233.891,213.583 239.688,203.934 244.341,195.151 C250.463,183.595 255.507,174.925 256,153.672 L255.774,146.814 C255.774,136.655 248.522,121.76 248.522,121.76 C247.389,119.12 243.547,113.566 241.088,110.132 L241.15,110.132 C240.362,109.077 239.814,108.372 239.814,108.372 C232.573,100.069 221.609,90.81 216.777,84.849 C211.121,77.853 210.97,71.31 210.665,66.218 C209.847,52.46 215.418,44.147 221.383,36.015 C230.391,23.757 233.634,21.456 240.568,13.433" fill="#FA930D"></path>
	</g>
</svg>
